X: 36
T:Cup Of Tea, The
M:C|
L:1/8
Q:120
S:THSP
R:reel
K:Edor
"Em"BAGF GE ~E2|GEBE GE ~E2|BAGF GE~E2|"D"(3FED AG FD~D2|
"Em"BAGF GE~E2|GEBE GE~E2|"G"BAGF GABc|"D"dBAG FD ~D2:|
|:"D"d2 eg fdec|d2 eg "G"fB ~B2|"D"d2 eg fdec|"A"dBAG "D"FD D2|
d2 eg fdec|dfaf "G"g2 fg|"D"afge fdec|"A"dBAG "D"FD D2:|
|:"D"FAdA FABA|FAdA "A"FE~E2|"D"FAdA "G"~B3c|"A"dBAG "D"FD D2|
FAdA FABA|FAde "A"fe~e2|"D"fdec "G"dBAF|"A"GBAG "D"FD D2:||
